X: 1
T: The Smiling Bride
R: jig
M: 6/8
L: 1/8
K: Dmaj
~E3 FDD|FEE cde|dcA GEA,|CDE GAG|
~E3 FDD|FEE cde|dcA GEA|DED D2A,|
~E3 FDD|FEE cde|dcA GEA,|CDE GAB|
cAG EFG|FdF GFG|AdB cAG|EDC Dde||
~f3 fdA|dfa agf|efe ecA|cde gag|
~f3 fdA|dfa agf|Bef gab|aec d2e|
~f3 fdA|dfa agf|efe ecA|cde gag|
fga bag|fge dAF|GAB Ace|dgf ecA||


Tune 4290	Setting 29065

